assets/offering/ovader2-grey.svg

<svg width="48" height="48" viewBox="0 0 48 48" fill="none" xmlns="http://www.w3.org/2000/svg">
<g opacity="0.3">
<mask id="mask0" mask-type="alpha" maskUnits="userSpaceOnUse" x="0" y="0" width="48" height="48">
<path fill-rule="evenodd" clip-rule="evenodd" d="M0 0H47.9999V47.9998H0V0Z" fill="white"/>
</mask>
<g mask="url(#mask0)">
<path fill-rule="evenodd" clip-rule="evenodd" d="M48 24C48 37.255 37.255 48 24 48C10.745 48 0 37.255 0 24C0 10.745 10.745 0 24 0C37.255 0 48 10.745 48 24Z" fill="#FF8A80"/>
</g>
<path fill-rule="evenodd" clip-rule="evenodd" d="M25.8947 38.6826V32.7036H23.8347V25.9106H24.8347V31.7036H26.8947V36.2126L32.5027 30.4216H30.2047L32.0567 25.7266L32.9867 26.0936L31.6727 29.4216H34.8647L25.8947 38.6826Z" fill="white"/>
<path fill-rule="evenodd" clip-rule="evenodd" d="M15.3037 31.2434C15.0277 31.2434 14.8037 31.0194 14.8037 30.7434V25.8994C14.8037 25.6224 15.0277 25.3994 15.3037 25.3994C15.5797 25.3994 15.8037 25.6224 15.8037 25.8994V30.7434C15.8037 31.0194 15.5797 31.2434 15.3037 31.2434Z" fill="white"/>
<path fill-rule="evenodd" clip-rule="evenodd" d="M19.7178 36.5758C19.4418 36.5758 19.2178 36.3518 19.2178 36.0758V26.2988C19.2178 26.0218 19.4418 25.7988 19.7178 25.7988C19.9938 25.7988 20.2178 26.0218 20.2178 26.2988V36.0758C20.2178 36.3518 19.9938 36.5758 19.7178 36.5758Z" fill="white"/>
<path fill-rule="evenodd" clip-rule="evenodd" d="M14.0165 18.7308C12.1445 18.7308 10.6775 20.1978 10.6775 22.0698C10.6775 23.9428 12.1445 25.4098 14.0165 25.4098H34.3665C35.9955 25.4098 37.3225 24.0848 37.3225 22.4548C37.3225 20.7968 36.0235 19.4988 34.3665 19.4988C33.9225 19.4988 33.5545 19.5798 33.2075 19.7528C33.0155 19.8498 32.7825 19.8128 32.6305 19.6598C32.4785 19.5078 32.4415 19.2748 32.5375 19.0828C32.6515 18.8528 32.7145 18.5508 32.7145 18.2308C32.7145 16.8128 31.5615 15.6588 30.1435 15.6588C29.5685 15.6588 29.1205 15.8478 28.6245 16.1308C28.4915 16.2078 28.3285 16.2188 28.1835 16.1578C28.0395 16.0978 27.9325 15.9738 27.8935 15.8238C27.1545 13.0138 24.6055 11.0518 21.6965 11.0518C18.1615 11.0518 15.2855 13.9278 15.2855 17.4628C15.2855 17.7248 15.2855 17.9968 15.3355 18.1508C15.3935 18.3238 15.3515 18.5138 15.2275 18.6478C15.1035 18.7808 14.9155 18.8388 14.7405 18.7928C14.4935 18.7308 14.3135 18.7308 14.0165 18.7308ZM34.3665 26.4098H14.0165C11.5835 26.4098 9.67749 24.5038 9.67749 22.0698C9.67749 19.6368 11.5835 17.7308 14.0165 17.7308C14.1095 17.7308 14.1985 17.7308 14.2875 17.7328C14.2855 17.6428 14.2855 17.5528 14.2855 17.4628C14.2855 13.3768 17.6095 10.0518 21.6965 10.0518C24.8525 10.0518 27.6415 12.0498 28.6785 14.9808C29.0915 14.7978 29.5725 14.6588 30.1435 14.6588C32.1125 14.6588 33.7145 16.2618 33.7145 18.2308C33.7145 18.3388 33.7095 18.4468 33.6995 18.5528C33.9125 18.5168 34.1335 18.4988 34.3665 18.4988C36.5475 18.4988 38.3225 20.2728 38.3225 22.4548C38.3225 24.6358 36.5475 26.4098 34.3665 26.4098Z" fill="white"/>
</g>
</svg>

<svg width="48" height="48" viewBox="0 0 48 48" fill="none" xmlns="http://www.w3.org/2000/svg"><g opacity=".3"><mask id="a" maskUnits="userSpaceOnUse" x="0" y="0" width="48" height="48"><path fill-rule="evenodd" clip-rule="evenodd" d="M0 0h48v48H0V0z" fill="#fff"/></mask><g mask="url(#a)"><path fill-rule="evenodd" clip-rule="evenodd" d="M48 24c0 13.255-10.745 24-24 24S0 37.255 0 24 10.745 0 24 0s24 10.745 24 24z" fill="#FF8A80"/></g><path fill-rule="evenodd" clip-rule="evenodd" d="M25.895 38.683v-5.98h-2.06v-6.792h1v5.793h2.06v4.509l5.608-5.791h-2.298l1.852-4.695.93.367-1.314 3.328h3.192l-8.97 9.26zM15.304 31.243a.5.5 0 01-.5-.5V25.9a.5.5 0 111 0v4.844a.5.5 0 01-.5.5zM19.718 36.576a.5.5 0 01-.5-.5v-9.777a.5.5 0 111 0v9.777a.5.5 0 01-.5.5z" fill="#fff"/><path fill-rule="evenodd" clip-rule="evenodd" d="M14.017 18.73a3.304 3.304 0 00-3.34 3.34 3.304 3.304 0 003.34 3.34h20.35a2.96 2.96 0 002.956-2.955 2.925 2.925 0 00-2.956-2.956c-.444 0-.813.08-1.16.254a.5.5 0 01-.67-.67c.114-.23.178-.532.178-.852a2.574 2.574 0 00-2.572-2.572c-.575 0-1.023.189-1.518.472a.498.498 0 01-.731-.307 6.41 6.41 0 00-12.608 1.639c0 .262 0 .534.05.688a.498.498 0 01-.595.642c-.248-.062-.428-.062-.724-.062zm20.35 7.68h-20.35c-2.433 0-4.34-1.906-4.34-4.34 0-2.433 1.907-4.34 4.34-4.34.093 0 .181 0 .27.003-.002-.09-.002-.18-.002-.27 0-4.086 3.325-7.411 7.412-7.411a7.41 7.41 0 016.982 4.929 3.555 3.555 0 011.465-.322 3.576 3.576 0 013.556 3.894 3.96 3.96 0 014.623 3.902 3.96 3.96 0 01-3.956 3.955z" fill="#fff"/></g></svg>
